src/assets/tulip/pool.svg

<svg width="22" height="22" viewBox="0 0 22 22" fill="none" xmlns="http://www.w3.org/2000/svg">
<path fill-rule="evenodd" clip-rule="evenodd" d="M11.8616 0.492475L11 1L10.1384 0.492475C10.3181 0.187322 10.6458 0 11 0C11.3542 0 11.6819 0.187322 11.8616 0.492475ZM11 3.07677C11.0359 3.1462 11.0719 3.21662 11.1079 3.28773C11.3515 3.76851 11.5863 4.26586 11.7577 4.69896C11.8434 4.91555 11.908 5.10276 11.95 5.25506C11.9708 5.33054 11.9841 5.3906 11.9919 5.43622C11.9989 5.4773 11.9999 5.49731 12 5.49997C12 5.50035 12 5.50038 12 5.49997C12 6.05224 11.5523 6.5 11 6.5C10.4477 6.5 10 6.05227 10 5.5C9.99998 5.5004 10 5.50038 10 5.5C10.0001 5.49734 10.0011 5.4773 10.0081 5.43622C10.0159 5.3906 10.0292 5.33054 10.05 5.25506C10.092 5.10276 10.1566 4.91555 10.2423 4.69896C10.4137 4.26586 10.6485 3.76851 10.8921 3.28773C10.9281 3.21662 10.9641 3.1462 11 3.07677ZM11 1C10.1384 0.492475 10.1384 0.49239 10.1384 0.492475L10.1377 0.493577L10.1315 0.50422L10.1135 0.534936C10.098 0.561504 10.0757 0.600045 10.0474 0.649163C9.99087 0.74736 9.91062 0.888049 9.81452 1.06004C9.62275 1.40326 9.3659 1.87471 9.10795 2.38386C8.85152 2.89001 8.58625 3.44862 8.3827 3.96282C8.19733 4.43109 8 5.0119 8 5.5C8 7.15683 9.34317 8.5 11 8.5C12.6568 8.5 14 7.15683 14 5.5C14 5.0119 13.8027 4.43109 13.6173 3.96282C13.4137 3.44862 13.1485 2.89001 12.8921 2.38386C12.6341 1.87471 12.3772 1.40326 12.1855 1.06004C12.0894 0.888049 12.0091 0.74736 11.9526 0.649163C11.9243 0.600045 11.902 0.561504 11.8865 0.534936L11.8685 0.50422L11.8623 0.493577L11.8616 0.492475C11.8616 0.49239 11.8616 0.492475 11 1ZM1 10C1.55228 10 2 10.4477 2 11C2 11.8284 2.67158 12.5 3.5 12.5C4.32841 12.5 5 11.8284 5 11C5 10.4477 5.44772 10 6 10C6.55228 10 7 10.4477 7 11C7 11.8284 7.67158 12.5 8.5 12.5C9.32841 12.5 10 11.8284 10 11C10 10.4477 10.4477 10 11 10C11.5523 10 12 10.4477 12 11C12 11.8284 12.6716 12.5 13.5 12.5C14.3284 12.5 15 11.8284 15 11C15 10.4477 15.4477 10 16 10C16.5523 10 17 10.4477 17 11C17 11.8284 17.6716 12.5 18.5 12.5C19.3284 12.5 20 11.8284 20 11C20 10.4477 20.4477 10 21 10C21.5523 10 22 10.4477 22 11C22 17.0751 17.0751 22 11 22C4.92487 22 0 17.0751 0 11C0 10.4477 0.447715 10 1 10ZM2.6642 14.3996C4.0054 17.6849 7.23234 20 11 20C14.7677 20 17.9946 17.6849 19.3358 14.3996C19.068 14.4652 18.7881 14.5 18.5 14.5C17.5207 14.5 16.6353 14.0978 16 13.4495C15.3647 14.0978 14.4793 14.5 13.5 14.5C12.5207 14.5 11.6353 14.0978 11 13.4495C10.3647 14.0978 9.47934 14.5 8.5 14.5C7.52066 14.5 6.63526 14.0978 6 13.4495C5.36474 14.0978 4.47934 14.5 3.5 14.5C3.21195 14.5 2.93202 14.4652 2.6642 14.3996Z" fill="#979797"/>
</svg>

<svg width="22" height="22" fill="none" xmlns="http://www.w3.org/2000/svg"><path fill-rule="evenodd" clip-rule="evenodd" d="M11.862.492L11 1l-.862-.508a1 1 0 011.724 0zM11 3.077l.108.21c.243.482.478.979.65 1.412.085.217.15.404.192.556A1.91 1.91 0 0112 5.5a1 1 0 01-2 0 1.91 1.91 0 01.05-.245 5.64 5.64 0 01.192-.556A17.616 17.616 0 0111 3.077zM11 1l-.862-.508v.002l-.006.01-.018.03a26.347 26.347 0 00-.3.526c-.191.343-.448.815-.706 1.324a19.583 19.583 0 00-.725 1.579C8.197 4.43 8 5.012 8 5.5a3 3 0 006 0c0-.488-.197-1.069-.383-1.537a19.61 19.61 0 00-.725-1.58A37.914 37.914 0 0011.887.536l-.019-.03-.006-.011V.492L11 1zM1 10a1 1 0 011 1 1.5 1.5 0 003 0 1 1 0 112 0 1.5 1.5 0 003 0 1 1 0 112 0 1.5 1.5 0 003 0 1 1 0 112 0 1.5 1.5 0 003 0 1 1 0 112 0c0 6.075-4.925 11-11 11S0 17.075 0 11a1 1 0 011-1zm1.664 4.4a9.003 9.003 0 0016.672 0A3.509 3.509 0 0116 13.45a3.49 3.49 0 01-2.5 1.05 3.49 3.49 0 01-2.5-1.05 3.49 3.49 0 01-2.5 1.05A3.49 3.49 0 016 13.45a3.49 3.49 0 01-3.336.95z" fill="#979797"/></svg>
